img/enceinte.svg

<svg xmlns="http://www.w3.org/2000/svg" width="499" height="499"><path fill="#fffcfc" fill-rule="evenodd" d="M248.047 52.059c-39.081 1.69-58.253 4.301-87.547 11.924-39.22 10.206-59.26 16.142-104.917 31.078-13.034 4.264-19.28 7.882-20.245 11.727-1.431 5.704 1.789 36.425 11.238 107.212 1.358 10.175 2.897 21.2 3.418 24.5s1.655 11.175 2.519 17.5c6.48 47.485 23.429 150.154 25.393 153.824.612 1.145 6.882 4.181 16.295 7.892 27.155 10.707 49.752 17.83 80.299 25.312 19.14 4.688 27.729 5.857 29.886 4.066.805-.667 2.53-.902 3.971-.54 1.536.385 3.822.004 5.75-.957 1.76-.879 3.919-1.599 4.797-1.601 1.546-.005 67.422-32.517 83.596-41.259 21.997-11.889 27.3-14.821 43.5-24.053 21.749-12.393 25.862-15.191 27.092-18.427.667-1.754.496-7.029-.539-16.662-4.529-42.119-5.021-44.504-8.875-43.025-1.964.754-2.098 3.792-.613 13.93.563 3.85 1.905 15.1 2.981 25 1.957 18 1.957 18-.959 20.501-2.5 2.145-33.323 20.004-54.087 31.338-12.398 6.767-31.587 16.684-48.736 25.186-32.648 16.187-41.765 20.472-41.964 19.724-.11-.412-1.346-9.074-2.747-19.249s-3.211-22.775-4.021-28c-4.943-31.878-9.897-62.917-11.493-72-1.014-5.775-2.824-16.125-4.02-23-4.587-26.348-7.151-38.545-8.358-39.76-1.007-1.013-1.601-1.005-3.032.042-1.692 1.237-1.606 2.238 1.746 20.26 1.94 10.427 3.971 21.658 4.514 24.958s3.021 18.15 5.506 33c8.881 53.067 15.942 102.021 15.163 105.124-.297 1.186-1.166 2.395-1.931 2.689-2.985 1.145-44.472-8.14-70.553-15.791-11.763-3.451-39.279-12.857-46.322-15.834-2.061-.871-4.193-2.62-4.737-3.886S87.462 394.625 85.551 385c-17.663-88.961-31.935-174.823-43.884-264-1.454-10.852-1.076-13.457 2.082-14.371 9.271-2.681 106.327-3.472 109.436-.891.82.681 1.99 3.606 2.599 6.5s2.903 13.587 5.098 23.762c4.259 19.745 11.234 53.457 13.187 63.733.651 3.428 1.745 6.698 2.431 7.267 1.688 1.401 4.5.19 4.5-1.938 0-2.65-14.745-74.079-19.401-93.986-.826-3.532-1.299-6.752-1.051-7.154.622-1.005 62.111-21.365 88.589-29.333 39.785-11.971 62.764-17.916 64.308-16.635 1.177.978 5.923 19.376 14.584 56.546 6.419 27.545 15.264 71.871 21.332 106.895 3.198 18.464 4.53 24.14 5.861 24.977 3.395 2.134 4.147-.418 2.814-9.548-7.485-51.268-34.602-176.236-39.602-182.511-2.242-2.813-2.242-2.813-27.088-2.932-13.665-.066-33.15.239-43.299.678m.953 6.083c-35.463 1.318-55.333 3.907-83.118 10.832-27.404 6.829-42.054 10.922-68.382 19.102-37.87 11.767-39.605 10.446 13.492 10.269 46.508-.156 46.508-.156 62.508-5.632 34.585-11.838 67.462-22.28 95-30.172 8.8-2.522 16.45-4.765 17-4.984 1.429-.57-10.609-.377-36.5.585m49.381 12.742c-3.439 2.125-5.389 6.492-5.366 12.015.019 4.495 1.177 6.402 3.605 5.94 1.499-.285 1.94-1.396 2.178-5.487.356-6.111 3.057-9.547 5.749-7.313 4.463 3.704 5.815 12.058 2.595 16.034-1.859 2.295-1.859 2.295-4.607.133-2.163-1.701-3.165-1.939-4.702-1.117-1.075.575-1.811 1.787-1.636 2.693.379 1.969 6.395 6.218 8.803 6.218 2.967 0 8.431-4.386 10.356-8.313 5.61-11.444-7.038-26.944-16.975-20.803M244.5 102.338c-25.153 13.593-30.782 58.014-10.187 80.393 5.426 5.897 10.178 8.841 17.598 10.904 5.841 1.624 6.199 1.609 13.073-.561 13.27-4.188 21.423-12.55 26.808-27.496 2.172-6.026 2.553-8.788 2.564-18.578.011-9.754-.367-12.564-2.488-18.512-4.8-13.453-12.896-23.048-22.638-26.83-6.407-2.487-19.537-2.126-24.73.68m1.446 6.528c-5.168 3.33-8.744 7.105-11.768 12.421-8.7 15.293-8.549 38.236.34 51.867 7.372 11.303 19.245 17.643 26.984 14.41 4.69-1.96 11.95-8.889 14.966-14.285 5.953-10.651 8.189-26.37 5.447-38.279-2.7-11.724-11.045-22.886-20.225-27.054-6.008-2.727-10.492-2.466-15.744.92m-67.642.09c-3.69 2.25-5.639 7.393-5.133 13.544.289 3.512.634 4 2.829 4 2.264 0 2.549-.471 3.018-5 .618-5.966 1.447-7.5 4.056-7.5 4.908 0 8.012 12.802 3.987 16.445-1.789 1.619-2.115 1.631-4.222.155-4.983-3.49-8.42-.53-4.553 3.92 1.282 1.475 3.727 2.788 5.809 3.119 3.052.486 4.144.09 7.236-2.625 8.411-7.385 6.431-21.495-3.659-26.076-5.202-2.362-5.465-2.361-9.368.018m79.196 12.576c-.55.161-2.229.564-3.732.895-5.774 1.272-14.644 12.126-13.132 16.068.83 2.162 4.541 1.53 5.851-.995 2.623-5.057 4.93-7.449 8.599-8.918 3.445-1.378 4.401-1.405 7.272-.206 6.672 2.788 10.259 10.725 9.363 20.712-1.25 13.923-11.129 21.619-20.454 15.933-6.468-3.943-8.705 1.435-2.369 5.695 6.69 4.497 16.154 2.546 22.262-4.59 12.718-14.857 6.923-41.47-9.66-44.364-1.65-.288-3.45-.391-4-.23m11.442 84.755c-9.707 3.31-17.357 8.347-24.803 16.334-7.508 8.053-12.051 15.144-16.057 25.064-17.974 44.507-2.421 99.088 33.253 116.698 9.471 4.675 16.054 5.974 27.298 5.386 7.909-.414 10.282-.984 16.55-3.975 18.567-8.859 31.587-26.253 38.437-51.35 2.456-8.998 2.714-11.562 2.714-26.944 0-15.396-.257-17.943-2.726-27-7.79-28.58-25.833-49.811-47.108-55.432-7.027-1.857-20.251-1.272-27.558 1.219m-4.803 8.463c-11.734 6.281-20.945 16.179-27.569 29.623-7.68 15.589-9.07 22.199-9.07 43.127 0 15.993.263 18.892 2.361 26 8.278 28.041 28.066 48.168 49.309 50.151 6.112.571 6.985.384 12.904-2.769 22.454-11.961 37.141-40.794 37.143-72.922.002-34.747-18.017-65.118-43.922-74.031-8.133-2.798-14.885-2.536-21.156.821m14 28.342c-12.097 2.335-23.424 15.498-27.511 31.972-5.278 21.278 2.357 44.143 17.508 52.427 7.128 3.897 16.888 4.145 24.164.613 15.34-7.448 24.975-27.412 23.357-48.397-.699-9.062-2.322-13.207-5.17-13.207-2.187 0-2.153-.573-.921 15.5 1.034 13.483-2.585 24.726-10.842 33.684-14.22 15.427-32.694 10.626-41.112-10.684-.978-2.475-2.021-8.325-2.318-13-.865-13.605 3.153-26.189 11.121-34.834 5.656-6.136 10.742-8.53 18.284-8.605 6.887-.068 9.736-1.616 7.258-3.945-1.955-1.839-8.468-2.557-13.818-1.524m68.067 90.388c-3.745 3.151-5.428 7.216-5.024 12.133.234 2.846.816 3.965 2.198 4.227 2.295.435 3.584-1.409 3.605-5.156.05-9.289 7.827-8.532 9.603.934.617 3.288-1.94 10.382-3.742 10.382-.51 0-2.24-.971-3.845-2.157-2.419-1.789-3.181-1.939-4.459-.878-2.289 1.9-1.893 3.562 1.535 6.446 3.516 2.959 6.721 3.262 11.017 1.04 9.723-5.028 9.052-22.275-1.068-27.438-5.081-2.592-6.251-2.536-9.82.467m-117.907 57.77c-3.264 3.583-4.299 6.293-4.299 11.251 0 4.463.1 4.62 2.75 4.315 2.238-.257 2.804-.874 3.04-3.316.826-8.531 4.709-11.01 8.221-5.25 2.376 3.897 2.529 7.805.463 11.8-1.806 3.492-3.667 3.732-6.379.822-2.16-2.319-4.732-1.981-5.785.762-.948 2.472 4.899 7.366 8.801 7.366 3.743 0 8.395-3.143 10.404-7.029 1.973-3.815 1.884-11.328-.185-15.688-3.253-6.855-12.801-9.677-17.031-5.033"/></svg>

<svg xmlns="http://www.w3.org/2000/svg" width="499" height="499" viewBox="0 0 499 499" version="1.1"><path d="M 248.047 52.059 C 208.966 53.749, 189.794 56.360, 160.500 63.983 C 121.280 74.189, 101.240 80.125, 55.583 95.061 C 42.549 99.325, 36.303 102.943, 35.338 106.788 C 33.907 112.492, 37.127 143.213, 46.576 214 C 47.934 224.175, 49.473 235.200, 49.994 238.500 C 50.516 241.800, 51.649 249.675, 52.513 256 C 58.993 303.485, 75.942 406.154, 77.906 409.824 C 78.518 410.969, 84.788 414.005, 94.201 417.716 C 121.356 428.423, 143.953 435.546, 174.500 443.028 C 193.640 447.716, 202.229 448.885, 204.386 447.094 C 205.191 446.427, 206.916 446.192, 208.357 446.554 C 209.893 446.939, 212.179 446.558, 214.107 445.597 C 215.867 444.718, 218.026 443.998, 218.904 443.996 C 220.450 443.991, 286.326 411.479, 302.500 402.737 C 324.497 390.848, 329.800 387.916, 346 378.684 C 367.749 366.291, 371.862 363.493, 373.092 360.257 C 373.759 358.503, 373.588 353.228, 372.553 343.595 C 368.024 301.476, 367.532 299.091, 363.678 300.570 C 361.714 301.324, 361.580 304.362, 363.065 314.500 C 363.628 318.350, 364.970 329.600, 366.046 339.500 C 368.003 357.500, 368.003 357.500, 365.087 360.001 C 362.587 362.146, 331.764 380.005, 311 391.339 C 298.602 398.106, 279.413 408.023, 262.264 416.525 C 229.616 432.712, 220.499 436.997, 220.300 436.249 C 220.190 435.837, 218.954 427.175, 217.553 417 C 216.152 406.825, 214.342 394.225, 213.532 389 C 208.589 357.122, 203.635 326.083, 202.039 317 C 201.025 311.225, 199.215 300.875, 198.019 294 C 193.432 267.652, 190.868 255.455, 189.661 254.240 C 188.654 253.227, 188.060 253.235, 186.629 254.282 C 184.937 255.519, 185.023 256.520, 188.375 274.542 C 190.315 284.969, 192.346 296.200, 192.889 299.500 C 193.432 302.800, 195.910 317.650, 198.395 332.500 C 207.276 385.567, 214.337 434.521, 213.558 437.624 C 213.261 438.810, 212.392 440.019, 211.627 440.313 C 208.642 441.458, 167.155 432.173, 141.074 424.522 C 129.311 421.071, 101.795 411.665, 94.752 408.688 C 92.691 407.817, 90.559 406.068, 90.015 404.802 C 89.471 403.536, 87.462 394.625, 85.551 385 C 67.888 296.039, 53.616 210.177, 41.667 121 C 40.213 110.148, 40.591 107.543, 43.749 106.629 C 53.020 103.948, 150.076 103.157, 153.185 105.738 C 154.005 106.419, 155.175 109.344, 155.784 112.238 C 156.393 115.132, 158.687 125.825, 160.882 136 C 165.141 155.745, 172.116 189.457, 174.069 199.733 C 174.720 203.161, 175.814 206.431, 176.500 207 C 178.188 208.401, 181 207.190, 181 205.062 C 181 202.412, 166.255 130.983, 161.599 111.076 C 160.773 107.544, 160.300 104.324, 160.548 103.922 C 161.170 102.917, 222.659 82.557, 249.137 74.589 C 288.922 62.618, 311.901 56.673, 313.445 57.954 C 314.622 58.932, 319.368 77.330, 328.029 114.500 C 334.448 142.045, 343.293 186.371, 349.361 221.395 C 352.559 239.859, 353.891 245.535, 355.222 246.372 C 358.617 248.506, 359.369 245.954, 358.036 236.824 C 350.551 185.556, 323.434 60.588, 318.434 54.313 C 316.192 51.500, 316.192 51.500, 291.346 51.381 C 277.681 51.315, 258.196 51.620, 248.047 52.059 M 249 58.142 C 213.537 59.460, 193.667 62.049, 165.882 68.974 C 138.478 75.803, 123.828 79.896, 97.500 88.076 C 59.630 99.843, 57.895 98.522, 110.992 98.345 C 157.500 98.189, 157.500 98.189, 173.500 92.713 C 208.085 80.875, 240.962 70.433, 268.500 62.541 C 277.300 60.019, 284.950 57.776, 285.500 57.557 C 286.929 56.987, 274.891 57.180, 249 58.142 M 298.381 70.884 C 294.942 73.009, 292.992 77.376, 293.015 82.899 C 293.034 87.394, 294.192 89.301, 296.620 88.839 C 298.119 88.554, 298.560 87.443, 298.798 83.352 C 299.154 77.241, 301.855 73.805, 304.547 76.039 C 309.010 79.743, 310.362 88.097, 307.142 92.073 C 305.283 94.368, 305.283 94.368, 302.535 92.206 C 300.372 90.505, 299.370 90.267, 297.833 91.089 C 296.758 91.664, 296.022 92.876, 296.197 93.782 C 296.576 95.751, 302.592 100, 305 100 C 307.967 100, 313.431 95.614, 315.356 91.687 C 320.966 80.243, 308.318 64.743, 298.381 70.884 M 244.500 102.338 C 219.347 115.931, 213.718 160.352, 234.313 182.731 C 239.739 188.628, 244.491 191.572, 251.911 193.635 C 257.752 195.259, 258.110 195.244, 264.984 193.074 C 278.254 188.886, 286.407 180.524, 291.792 165.578 C 293.964 159.552, 294.345 156.790, 294.356 147 C 294.367 137.246, 293.989 134.436, 291.868 128.488 C 287.068 115.035, 278.972 105.440, 269.230 101.658 C 262.823 99.171, 249.693 99.532, 244.500 102.338 M 245.946 108.866 C 240.778 112.196, 237.202 115.971, 234.178 121.287 C 225.478 136.580, 225.629 159.523, 234.518 173.154 C 241.890 184.457, 253.763 190.797, 261.502 187.564 C 266.192 185.604, 273.452 178.675, 276.468 173.279 C 282.421 162.628, 284.657 146.909, 281.915 135 C 279.215 123.276, 270.870 112.114, 261.690 107.946 C 255.682 105.219, 251.198 105.480, 245.946 108.866 M 178.304 108.956 C 174.614 111.206, 172.665 116.349, 173.171 122.500 C 173.460 126.012, 173.805 126.500, 176 126.500 C 178.264 126.500, 178.549 126.029, 179.018 121.500 C 179.636 115.534, 180.465 114, 183.074 114 C 187.982 114, 191.086 126.802, 187.061 130.445 C 185.272 132.064, 184.946 132.076, 182.839 130.600 C 177.856 127.110, 174.419 130.070, 178.286 134.520 C 179.568 135.995, 182.013 137.308, 184.095 137.639 C 187.147 138.125, 188.239 137.729, 191.331 135.014 C 199.742 127.629, 197.762 113.519, 187.672 108.938 C 182.470 106.576, 182.207 106.577, 178.304 108.956 M 257.500 121.532 C 256.950 121.693, 255.271 122.096, 253.768 122.427 C 247.994 123.699, 239.124 134.553, 240.636 138.495 C 241.466 140.657, 245.177 140.025, 246.487 137.500 C 249.110 132.443, 251.417 130.051, 255.086 128.582 C 258.531 127.204, 259.487 127.177, 262.358 128.376 C 269.030 131.164, 272.617 139.101, 271.721 149.088 C 270.471 163.011, 260.592 170.707, 251.267 165.021 C 244.799 161.078, 242.562 166.456, 248.898 170.716 C 255.588 175.213, 265.052 173.262, 271.160 166.126 C 283.878 151.269, 278.083 124.656, 261.500 121.762 C 259.850 121.474, 258.050 121.371, 257.500 121.532 M 268.942 206.287 C 259.235 209.597, 251.585 214.634, 244.139 222.621 C 236.631 230.674, 232.088 237.765, 228.082 247.685 C 210.108 292.192, 225.661 346.773, 261.335 364.383 C 270.806 369.058, 277.389 370.357, 288.633 369.769 C 296.542 369.355, 298.915 368.785, 305.183 365.794 C 323.750 356.935, 336.770 339.541, 343.620 314.444 C 346.076 305.446, 346.334 302.882, 346.334 287.500 C 346.334 272.104, 346.077 269.557, 343.608 260.500 C 335.818 231.920, 317.775 210.689, 296.500 205.068 C 289.473 203.211, 276.249 203.796, 268.942 206.287 M 264.139 214.750 C 252.405 221.031, 243.194 230.929, 236.570 244.373 C 228.890 259.962, 227.500 266.572, 227.500 287.500 C 227.500 303.493, 227.763 306.392, 229.861 313.500 C 238.139 341.541, 257.927 361.668, 279.170 363.651 C 285.282 364.222, 286.155 364.035, 292.074 360.882 C 314.528 348.921, 329.215 320.088, 329.217 287.960 C 329.219 253.213, 311.200 222.842, 285.295 213.929 C 277.162 211.131, 270.410 211.393, 264.139 214.750 M 278.139 243.092 C 266.042 245.427, 254.715 258.590, 250.628 275.064 C 245.350 296.342, 252.985 319.207, 268.136 327.491 C 275.264 331.388, 285.024 331.636, 292.300 328.104 C 307.640 320.656, 317.275 300.692, 315.657 279.707 C 314.958 270.645, 313.335 266.500, 310.487 266.500 C 308.300 266.500, 308.334 265.927, 309.566 282 C 310.600 295.483, 306.981 306.726, 298.724 315.684 C 284.504 331.111, 266.030 326.310, 257.612 305 C 256.634 302.525, 255.591 296.675, 255.294 292 C 254.429 278.395, 258.447 265.811, 266.415 257.166 C 272.071 251.030, 277.157 248.636, 284.699 248.561 C 291.586 248.493, 294.435 246.945, 291.957 244.616 C 290.002 242.777, 283.489 242.059, 278.139 243.092 M 346.206 333.480 C 342.461 336.631, 340.778 340.696, 341.182 345.613 C 341.416 348.459, 341.998 349.578, 343.380 349.840 C 345.675 350.275, 346.964 348.431, 346.985 344.684 C 347.035 335.395, 354.812 336.152, 356.588 345.618 C 357.205 348.906, 354.648 356, 352.846 356 C 352.336 356, 350.606 355.029, 349.001 353.843 C 346.582 352.054, 345.820 351.904, 344.542 352.965 C 342.253 354.865, 342.649 356.527, 346.077 359.411 C 349.593 362.370, 352.798 362.673, 357.094 360.451 C 366.817 355.423, 366.146 338.176, 356.026 333.013 C 350.945 330.421, 349.775 330.477, 346.206 333.480 M 228.299 391.250 C 225.035 394.833, 224 397.543, 224 402.501 C 224 406.964, 224.100 407.121, 226.750 406.816 C 228.988 406.559, 229.554 405.942, 229.790 403.500 C 230.616 394.969, 234.499 392.490, 238.011 398.250 C 240.387 402.147, 240.540 406.055, 238.474 410.050 C 236.668 413.542, 234.807 413.782, 232.095 410.872 C 229.935 408.553, 227.363 408.891, 226.310 411.634 C 225.362 414.106, 231.209 419, 235.111 419 C 238.854 419, 243.506 415.857, 245.515 411.971 C 247.488 408.156, 247.399 400.643, 245.330 396.283 C 242.077 389.428, 232.529 386.606, 228.299 391.250" stroke="none" fill="#fffcfc" fill-rule="evenodd"/><path d="" stroke="none" fill="#fcfcfc" fill-rule="evenodd"/></svg>
